exported-svg/rotate-ccw.svg

<svg height="24" viewBox="0 0 24 24" width="24" xmlns="http://www.w3.org/2000/svg"><path d="m3.76227524 8.990895h4.73772476c.27614237 0 .5.22385763.5.5 0 .27614238-.22385763.5-.5.5h-6c-.27614237 0-.5-.22385762-.5-.5v-6c0-.27614237.22385763-.5.5-.5s.5.22385763.5.5v4.8441261l3.78674568-3.55797831c2.99443407-2.98937446 7.60495682-3.63804938 11.30799172-1.59097156s5.6058835 6.29641501 4.6670188 10.42213047c-.9388647 4.1257155-4.4931087 7.1332143-8.7173112 7.3763374-4.22420239.2431232-8.10002589-2.3367395-9.50603265-6.3274963-.09176089-.2604507.04498919-.5459746.30543986-.6377354.26045067-.0917609.54597455.0449891.63773544.3054398 1.25800605 3.5706772 4.72584815 5.8789754 8.50539765 5.6614441 3.7795496-.2175312 6.9596626-2.9084512 7.7996995-6.5998809.8400368-3.69142958-.8625119-7.49346811-4.1757537-9.32506406-3.3132417-1.83159594-7.4384463-1.25120259-10.12854281 1.43402519z"/></svg>

<?xml version="1.0" encoding="UTF-8"?>
<svg width="24px" height="24px" viewBox="0 0 24 24" version="1.1" xmlns="http://www.w3.org/2000/svg" xmlns:xlink="http://www.w3.org/1999/xlink">
    <!-- Generator: Sketch 55.2 (78181) - https://sketchapp.com -->
    <title>rotate-ccw</title>
    <desc>Created with Sketch.</desc>
    <g id="rotate-ccw" stroke="none" stroke-width="1" fill="none" fill-rule="evenodd">
        <path d="M3.76227524,8.990895 L8.5,8.990895 C8.77614237,8.990895 9,9.21475263 9,9.490895 C9,9.76703738 8.77614237,9.990895 8.5,9.990895 L2.5,9.990895 C2.22385763,9.990895 2,9.76703738 2,9.490895 L2,3.490895 C2,3.21475263 2.22385763,2.990895 2.5,2.990895 C2.77614237,2.990895 3,3.21475263 3,3.490895 L3,8.3350211 L6.78674568,4.77704279 C9.78117975,1.78766833 14.3917025,1.13899341 18.0947374,3.18607123 C21.7977723,5.23314905 23.7006209,9.48248624 22.7617562,13.6082017 C21.8228915,17.7339172 18.2686475,20.741416 14.044445,20.9845391 C9.82024261,21.2276623 5.94441911,18.6477996 4.53841235,14.6570428 C4.44665146,14.3965921 4.58340154,14.1110682 4.84385221,14.0193074 C5.10430288,13.9275465 5.38982676,14.0642965 5.48158765,14.3247472 C6.7395937,17.8954244 10.2074358,20.2037226 13.9869853,19.9861913 C17.7665349,19.7686601 20.9466479,17.0777401 21.7866848,13.3863104 C22.6267216,9.69488082 20.9241729,5.89284229 17.6109311,4.06124634 C14.2976894,2.2296504 10.1724848,2.81004375 7.48238829,5.49527153 L3.76227524,8.990895 Z" id="arrow" fill="#000000" fill-rule="nonzero"></path>
    </g>
</svg>
